priv/static/svgs/icons_new/sport-weightlifting.svg

<svg width="32" height="32" viewBox="0 0 32 32" fill="none" xmlns="http://www.w3.org/2000/svg">
<path d="M20.365 20.3744C20.365 20.3744 17.3988 15.7543 10.5421 19.0671M13.1989 18.0575C13.1989 18.0575 11.2263 14.2347 6 16.0178M9.27553 23.7522C9.27553 23.7522 8.01263 24.9637 7.01905 27M8.68229 24.731C16.0049 29.1766 25.9261 23.8617 25.9261 23.8617C26.6686 13.7522 21.5697 6.69537 21.5697 6.69537L21.4969 6.61323C21.4969 6.61323 20.3978 4.94656 15.6701 5.00132C15.6701 5.00132 13.3226 6.14095 13.7557 8.75218L14.4181 9.60092L17.9229 9.21762C17.9229 9.21762 18.4725 7.77682 18.7673 7.37641M18.538 8.36204C18.5052 8.33466 20.1685 9.54274 20.3577 11.0931L20.3832 11.1957C20.5433 12.0308 20.729 13.2833 20.5506 13.8412C20.3359 14.5188 19.4515 15.6653 19.1058 17.2464" stroke="black" stroke-miterlimit="10"/>
</svg>

<svg width="32" height="32" viewBox="0 0 32 32" fill="none" xmlns="http://www.w3.org/2000/svg">
  <symbol id="item" viewBox="0 0 32 32" stroke-width="1" fill="none">
    <path d="M20.365 20.374s-2.966-4.62-9.823-1.307m2.657-1.01S11.226 14.236 6 16.018m3.276 7.735S8.013 24.964 7.019 27m1.663-2.269c7.323 4.446 17.244-.87 17.244-.87.743-10.109-4.356-17.166-4.356-17.166l-.073-.082s-1.1-1.666-5.827-1.612c0 0-2.347 1.14-1.914 3.751l.662.849 3.505-.383s.55-1.441.844-1.842m-.229.986c-.033-.027 1.63 1.18 1.82 2.731l.025.103c.16.835.346 2.087.168 2.645-.215.678-1.1 1.824-1.445 3.405" stroke="currentColor" stroke-miterlimit="10"/>
  </symbol>
</svg>
